X:60
T: Hnseleins Klage (Band 1), S. 178
N: P0835
O: Lothringen
S: PINCK, Louis: Verklingende Weisen, Bd 1, Metz 1928]
R: Klage (Hase)]
M: 2/4
L: 1/16
K: G
D2 | G4E4 | E2D2D2D2 | A4B2A2 | G4z2
D2 | G4E4 | E2D2D4 | A4B2B2 | G4z2
D2 | G2A2G2F2 | E4D2
D2 | G2A2G2F2 | E4D2
D2 | G2F2G2B2 | A6B2 | d3
cB2A2 | B4z2c2 | B4D2F2 | G4A2B2 | A4G2F2 | G4z2
D2 | G2A2G2F2 | E4D2
D2 | G2A2G2F2 | E4D2
D2 | G2F2G2B2 | A6B2 | d3
cB2A2 | B4z2c2 | B4D2F2 | G4A2B2 | A4G2F2 | G4z2

@@@ Tune index: 7610
